src/images/facebook.svg

<svg width="10" height="18" viewBox="0 0 10 18" fill="none" xmlns="http://www.w3.org/2000/svg">
<path d="M6.39703 17.997V9.80099H9.16203L9.57303 6.59199H6.39703V4.54799C6.39703 3.62199 6.65503 2.98799 7.98403 2.98799H9.66803V0.126986C8.84867 0.0391771 8.02508 -0.00322112 7.20103 -1.39392e-05C4.75703 -1.39392e-05 3.07903 1.49199 3.07903 4.23099V6.58599H0.332031V9.79499H3.08503V17.997H6.39703Z" fill="#C6CBCD"/>
</svg>

<svg width="10" height="18" fill="none" xmlns="http://www.w3.org/2000/svg"><path d="M6.397 17.997V9.801h2.765l.411-3.209H6.397V4.548c0-.926.258-1.56 1.587-1.56h1.684V.127C8.848.039 8.025-.003 7.201 0 4.757 0 3.079 1.492 3.079 4.231v2.355H.332v3.209h2.753v8.202h3.312Z" fill="#C6CBCD"/></svg>
